public/avatar/body/88.svg

<svg xmlns:xlink="http://www.w3.org/1999/xlink" height="82" width="84.85" xmlns="http://www.w3.org/2000/svg"><g transform="translate(37.4 42.25)"><use height="38.95" transform="translate(-12.45 -17.95)" width="33.1" xlink:href="#a"/><use height="14.55" transform="translate(-13.1 2.05)" width="34.25" xlink:href="#b"/></g><defs><g id="a" transform="translate(.5 .5)"><use height="38" transform="translate(0 -.05)" width="32.05" xlink:href="#c"/><use height="38.95" transform="translate(-.5 -.5)" width="33.05" xlink:href="#d"/><use height="37.35" transform="translate(.7 .1)" width="31.9" xlink:href="#e"/></g><g id="e"><path d="m15.7 1.6.35 35m1.5-35.15q5 13.5 5 22.8 0 9.35-4.35 12.35" fill="none" stroke="#c26339" stroke-linecap="round" stroke-linejoin="round" transform="translate(-.7 -.1)"/><path d="M19.2 1.95q8.5 13 8.5 22.5 0 5.95-3.3 9.55-1.7 1.85-3.35 2.45" fill="none" stroke="#c26339" stroke-linecap="round" stroke-linejoin="round" transform="translate(-.7 -.1)"/><path d="M22.05 3.25q2.2 2.2 4.4 5.9 4.4 7.4 4.4 15.1 0 5-5 10m-11.3-32.8q-5 13.5-5 22.8 0 9.35 4.3 12.35" fill="none" stroke="#c26339" stroke-linecap="round" stroke-linejoin="round" transform="translate(-.7 -.1)"/><path d="M12.85 1.95q-8.5 13-8.5 22.5 0 5.95 3.35 9.55 1.7 1.85 3.35 2.45" fill="none" stroke="#c26339" stroke-linecap="round" stroke-linejoin="round" transform="translate(-.7 -.1)"/><path d="M10.05 3.25q-2.2 2.2-4.4 5.9-4.45 7.4-4.45 15.1 0 5 5 10" fill="none" stroke="#c26339" stroke-linecap="round" stroke-linejoin="round" transform="translate(-.7 -.1)"/><path d="m21.05 1.45-2.1-.9L17.8.2l-2-.1 1.4 1.05q4.15 3.3 6.65 8.1 1.45 2.75 2.1 5.8.75 3.45 1.1 6.95.9 7.8-4.45 13.3l-2.3 2.15 3.95-1.05 2.55-1.45.4-.3 1.65-1.5.75-.9 1.75-2.9.45-1.05.55-2.1.25-2.1-.2-3.3-.45-2.3-1.85-5.95-2.35-4.5-1.45-2-2.4-2.65-.9-.75-1.95-1.2" fill-opacity=".251" fill-rule="evenodd" transform="translate(-.7 -.1)"/></g><g id="b"><path d="M-12.25 3.6q7.1 3.7 16.5 3.7 9.35 0 15.4-4.75" fill="none" stroke="#470000" stroke-linecap="round" stroke-linejoin="round" transform="translate(13.1 -2.05)"/><path d="M20 3.8q.6.4.45 1.3-.1.7-.05 1.4.15 1.9-.5 3.55-.25 1.8-.25.95-6.15 5.1-15.3 5.1-9.2 0-15.35-3.75-.75-1.05-1-3.15l-.5-5.25Q-5.65 8.1 4.15 8.1 14 8.1 20 3.1v.7" fill="red" fill-rule="evenodd" transform="translate(13.1 -2.05)"/><path d="M10 12.45q1.8 0 3.7-1.05l3.45-2q1.9-.95 3.15-.9.5 2.75-4.9 4.95-3.45 1.4-7.4 2-4.45.65-8.65-.2L-8.5 13.8l-.3-.05-.1-.15-.6-.7q-.5-.5-1.05-.9l-.3-.75-.4-.8-.25-.5q1.9-.75 5.05.9 3.5 1.8 7.95.95 3.1-.6 8.5.65" fill="#b20000" fill-rule="evenodd" transform="translate(13.1 -2.05)"/><path d="M-12.15 4.1q7.65 4 16.3 4 8.7 0 15.7-4.5" fill="none" stroke="#ffb5b5" stroke-linecap="round" stroke-linejoin="round" transform="translate(13.1 -2.05)"/><path d="M-10.75 12.8q3.9 3.3 15.1 3.3 6.95 0 11.85-2.55 2.4-1.25 3.45-2.55" fill="none" stroke="#9e0000" stroke-linecap="round" stroke-linejoin="round" transform="translate(13.1 -2.05)"/><path d="M19.55 11.25q1.15-2.5 1.1-3.9 0-2.9-.65-4.25m-30.25 10q-1.65-2.55-2-3.9-.5-2.1-.25-4l.35-1.5v-.35" fill="none" stroke="#470000" stroke-linecap="round" stroke-linejoin="round" transform="translate(13.1 -2.05)"/><path d="M-12.55 4.95Q-5.65 9.1 4.1 9.1q9.75 0 16.1-4.75" fill="none" stroke="#ff6b6b" stroke-linecap="round" stroke-linejoin="round" transform="translate(13.1 -2.05)"/><path d="M13 7.45q2.2.1 2.1.9-.2 1-2.75 1.25-2.9.15-1.75-1.25.65-.8 2.4-.9" fill="#ffbfbf" fill-rule="evenodd" transform="translate(13.1 -2.05)"/><path d="M18.7 11.2q-4.35 4.25-13.75 4.25-10.35 0-15.7-2.65" fill="none" stroke="#ff6b6b" stroke-linecap="round" stroke-linejoin="round" transform="translate(13.1 -2.05)"/></g><path d="M27.35 7.4q2.15 4.15 3.55 8.75 1.45 4.7 1.15 9.5-.35 4.95-4.2 8.1-3.8 3.2-8.75 4.05l-2.6.2q-3.6 0-7.05-1.15-4.65-1.6-7.1-5.5Q-.2 27.4.05 23q.2-4.4 2-9.3Q3.85 8.75 7 5.05 10.1 1.3 14.7.1l1.8-.1q1.9.05 3.7.8 4.75 2.05 7.15 6.6" fill="#82462d" fill-rule="evenodd" transform="translate(-.05)" id="f"/><path d="M27.35 7.4Q24.95 2.85 20.2.8 17.55-.3 14.7.1 10.1 1.3 7 5.05q-3.15 3.7-4.95 8.65-1.8 4.9-2 9.3-.25 4.4 2.3 8.35 2.45 3.9 7.1 5.5 4.65 1.55 9.65.95 4.95-.85 8.75-4.05 3.85-3.15 4.2-8.1.3-4.8-1.15-9.5-1.4-4.6-3.55-8.75Z" fill="none" stroke="#333" stroke-linecap="round" stroke-linejoin="round" transform="translate(.45 .5)" id="g"/><use height="38" width="32.05" xlink:href="#f" id="c"/><use height="38.95" width="33.05" xlink:href="#g" id="d"/></defs></svg>

<?xml version="1.0" encoding="UTF-8" standalone="no"?>
<svg xmlns:xlink="http://www.w3.org/1999/xlink" height="82.0px" width="84.85px" xmlns="http://www.w3.org/2000/svg">
  <g transform="matrix(1.0, 0.0, 0.0, 1.0, 37.4, 42.25)">
    <use height="38.95" transform="matrix(1.0, 0.0, 0.0, 1.0, -12.45, -17.95)" width="33.1" xlink:href="#sprite0"/>
    <use height="14.55" transform="matrix(1.0, 0.0, 0.0, 1.0, -13.1, 2.05)" width="34.25" xlink:href="#shape3"/>
  </g>
  <defs>
    <g id="sprite0" transform="matrix(1.0, 0.0, 0.0, 1.0, 0.5, 0.5)">
      <use height="38.0" transform="matrix(1.0, 0.0, 0.0, 1.0, 0.0, -0.05)" width="32.05" xlink:href="#sprite1"/>
      <use height="38.95" transform="matrix(1.0, 0.0, 0.0, 1.0, -0.5, -0.5)" width="33.05" xlink:href="#sprite2"/>
      <use height="37.35" transform="matrix(1.0, 0.0, 0.0, 1.0, 0.7, 0.1)" width="31.9" xlink:href="#shape2"/>
    </g>
    <g id="sprite1" transform="matrix(1.0, 0.0, 0.0, 1.0, -0.05, 0.0)">
      <use height="38.0" transform="matrix(1.0, 0.0, 0.0, 1.0, 0.05, 0.0)" width="32.05" xlink:href="#shape0"/>
    </g>
    <g id="shape0" transform="matrix(1.0, 0.0, 0.0, 1.0, -0.05, 0.0)">
      <path d="M27.35 7.4 Q29.5 11.55 30.9 16.15 32.35 20.85 32.05 25.65 31.7 30.6 27.85 33.75 24.05 36.95 19.1 37.8 L16.5 38.0 Q12.9 38.0 9.45 36.85 4.8 35.25 2.35 31.35 -0.2 27.4 0.05 23.0 0.25 18.6 2.05 13.7 3.85 8.75 7.0 5.05 10.1 1.3 14.7 0.1 L16.5 0.0 Q18.4 0.05 20.2 0.8 24.95 2.85 27.35 7.4" fill="#82462d" fill-rule="evenodd" stroke="none"/>
    </g>
    <g id="sprite2" transform="matrix(1.0, 0.0, 0.0, 1.0, 0.45, 0.5)">
      <use height="38.95" transform="matrix(1.0, 0.0, 0.0, 1.0, -0.45, -0.5)" width="33.05" xlink:href="#shape1"/>
    </g>
    <g id="shape1" transform="matrix(1.0, 0.0, 0.0, 1.0, 0.45, 0.5)">
      <path d="M27.35 7.4 Q24.95 2.85 20.2 0.8 17.55 -0.3 14.7 0.1 10.1 1.3 7.0 5.05 3.85 8.75 2.05 13.7 0.25 18.6 0.05 23.0 -0.2 27.4 2.35 31.35 4.8 35.25 9.45 36.85 14.1 38.4 19.1 37.8 24.05 36.95 27.85 33.75 31.7 30.6 32.05 25.65 32.35 20.85 30.9 16.15 29.5 11.55 27.35 7.4 Z" fill="none" stroke="#333333" stroke-linecap="round" stroke-linejoin="round" stroke-width="1.0"/>
    </g>
    <g id="shape2" transform="matrix(1.0, 0.0, 0.0, 1.0, -0.7, -0.1)">
      <path d="M15.7 1.6 L16.05 36.6" fill="none" stroke="#c26339" stroke-linecap="round" stroke-linejoin="round" stroke-width="1.0"/>
      <path d="M17.55 1.45 Q22.55 14.95 22.55 24.25 22.55 33.6 18.2 36.6" fill="none" stroke="#c26339" stroke-linecap="round" stroke-linejoin="round" stroke-width="1.0"/>
      <path d="M19.2 1.95 Q27.7 14.95 27.7 24.45 27.7 30.4 24.4 34.0 22.7 35.85 21.05 36.45" fill="none" stroke="#c26339" stroke-linecap="round" stroke-linejoin="round" stroke-width="1.0"/>
      <path d="M22.05 3.25 Q24.25 5.45 26.45 9.15 30.85 16.55 30.85 24.25 30.85 29.25 25.85 34.25" fill="none" stroke="#c26339" stroke-linecap="round" stroke-linejoin="round" stroke-width="1.0"/>
      <path d="M14.55 1.45 Q9.55 14.95 9.55 24.25 9.55 33.6 13.85 36.6" fill="none" stroke="#c26339" stroke-linecap="round" stroke-linejoin="round" stroke-width="1.0"/>
      <path d="M12.85 1.95 Q4.35 14.95 4.35 24.45 4.35 30.4 7.7 34.0 9.4 35.85 11.05 36.45" fill="none" stroke="#c26339" stroke-linecap="round" stroke-linejoin="round" stroke-width="1.0"/>
      <path d="M10.05 3.25 Q7.85 5.45 5.65 9.15 1.2 16.55 1.2 24.25 1.2 29.25 6.2 34.25" fill="none" stroke="#c26339" stroke-linecap="round" stroke-linejoin="round" stroke-width="1.0"/>
      <path d="M21.05 1.45 L18.95 0.55 17.8 0.2 15.8 0.1 17.2 1.15 Q21.35 4.45 23.85 9.25 25.3 12.0 25.95 15.05 26.7 18.5 27.05 22.0 27.95 29.8 22.6 35.3 L20.3 37.45 24.25 36.4 26.8 34.95 27.2 34.65 28.85 33.15 29.6 32.25 31.35 29.35 31.8 28.3 32.35 26.2 32.6 24.1 32.4 20.8 31.95 18.5 30.1 12.55 27.75 8.05 26.3 6.05 23.9 3.4 23.0 2.65 21.05 1.45" fill="#000000" fill-opacity="0.2509804" fill-rule="evenodd" stroke="none"/>
    </g>
    <g id="shape3" transform="matrix(1.0, 0.0, 0.0, 1.0, 13.1, -2.05)">
      <path d="M-12.25 3.6 Q-5.15 7.3 4.25 7.3 13.6 7.3 19.65 2.55" fill="none" stroke="#470000" stroke-linecap="round" stroke-linejoin="round" stroke-width="1.0"/>
      <path d="M20.0 3.8 Q20.6 4.2 20.45 5.1 20.35 5.8 20.4 6.5 20.55 8.4 19.9 10.05 19.65 11.85 19.65 11.0 13.5 16.1 4.35 16.1 -4.85 16.1 -11.0 12.35 -11.75 11.3 -12.0 9.2 L-12.5 3.95 Q-5.65 8.1 4.15 8.1 14.0 8.1 20.0 3.1 L20.0 3.8" fill="#ff0000" fill-rule="evenodd" stroke="none"/>
      <path d="M10.0 12.45 Q11.8 12.45 13.7 11.4 L17.15 9.4 Q19.05 8.45 20.3 8.5 20.8 11.25 15.4 13.45 11.95 14.85 8.0 15.45 3.55 16.1 -0.65 15.25 L-8.5 13.8 -8.8 13.75 -8.9 13.6 -9.5 12.9 Q-10.0 12.4 -10.55 12.0 L-10.85 11.25 -11.25 10.45 -11.5 9.95 Q-9.6 9.2 -6.45 10.85 -2.95 12.65 1.5 11.8 4.6 11.2 10.0 12.45" fill="#b20000" fill-rule="evenodd" stroke="none"/>
      <path d="M-12.15 4.1 Q-4.5 8.1 4.15 8.1 12.85 8.1 19.85 3.6" fill="none" stroke="#ffb5b5" stroke-linecap="round" stroke-linejoin="round" stroke-width="1.0"/>
      <path d="M-10.75 12.8 Q-6.85 16.1 4.35 16.1 11.3 16.1 16.2 13.55 18.6 12.3 19.65 11.0" fill="none" stroke="#9e0000" stroke-linecap="round" stroke-linejoin="round" stroke-width="1.0"/>
      <path d="M19.55 11.25 Q20.7 8.75 20.65 7.35 20.65 4.45 20.0 3.1" fill="none" stroke="#470000" stroke-linecap="round" stroke-linejoin="round" stroke-width="1.0"/>
      <path d="M-10.25 13.1 Q-11.9 10.55 -12.25 9.2 -12.75 7.1 -12.5 5.2 L-12.15 3.7 -12.15 3.35" fill="none" stroke="#470000" stroke-linecap="round" stroke-linejoin="round" stroke-width="1.0"/>
      <path d="M-12.55 4.95 Q-5.65 9.1 4.1 9.1 13.85 9.1 20.2 4.35" fill="none" stroke="#ff6b6b" stroke-linecap="round" stroke-linejoin="round" stroke-width="1.0"/>
      <path d="M13.0 7.45 Q15.2 7.55 15.1 8.35 14.9 9.35 12.35 9.6 9.45 9.75 10.6 8.35 11.25 7.55 13.0 7.45" fill="#ffbfbf" fill-rule="evenodd" stroke="none"/>
      <path d="M18.7 11.2 Q14.35 15.45 4.95 15.45 -5.4 15.45 -10.75 12.8" fill="none" stroke="#ff6b6b" stroke-linecap="round" stroke-linejoin="round" stroke-width="1.0"/>
    </g>
  </defs>
</svg>
